X:365
T:My Sweetheart Is Not Here
C:Joe Buchanan's Scottish Tome - Page 212.2
I:212 2
Z:Carl Allison
R:March
L:1/8
M:2/4
K:G
"G"BB dB | "Am"AG EE | "D7"AA BA | "G"GE "D7"DD |
"G"BB dB | "Am"AG GA | "G"Bd "D7"BG | "G"G2 G2 |
"G"D2 D2 | "G"DG GF | "Am"E2 E2 | "Am"EA "D7"AF |
"G"D2 D2 | "G"DG GA | "G"Bd "D7"BA | "G"G2 G2 |
"G"D/D/D/D/ D/D/D/D/ | "G"DG GF | "Am"E/E/E/E/ "Am"E/E/E/E/ | "Am"EA "D7"AF |
"G"D/D/D/D/ D/D/D/D/ | "G"DG GA | "G"Bd "D7"BA | "G"G2 G2 |]

